X:0310
T:Siugue.
M:6/8
L:1/8
Q:3/8=120
I: || || || DC
P:ABCA % Aird prints a da capo
Z:Jack Campin * www.campin.me.uk * 2009
K:G
P:A
G2G G2G|G3  AGA|B2B B2B|B3  cBc |\
d3  Bcd|c3  ABc|Bdc BAG|FAG FED |
G2G G2G|G3  AGA|B2B B2B|B3  cBc |\
d3  Bcd|c3  ABc|Bed cBA|G3  G3 ||
P:B
B6     |dBc dcB|A6     |cAB cBA |\
B2d B2d|c2e c2e|def g2f|e6     ||
P:C
ggg eee|fff ddd|BBB ccc|d3  def |\
ggg eee|fff ddd|BBB ccc|d3  cBA||

